X:287
T:Garry Owen
M:4/4
L:1/8
K:DMaj
{g}de|{g}f2ef{G}A2de|{g}f3ed3{g}A|{g}B2d2{gdG}d3{g}e|d4{gdG}d2{g}fg|
a2{g}a2{g}a2fa|B2{GdG}B2{e}A2{g}fe|d2{e}B2{gf}g2f2|{gef}e4{GdG}e2{g}fg|
a2{g}a2{g}a2fa|B2{GdG}B2{e}A2{g}fe|d2{e}B2{gf}g2f2|{gef}e4{GdG}e2{g}de|
{g}f2ef{G}A2de|{g}f3ed3{g}A|{g}B2d2{gdG}d3{g}e|d4{gdG}d2
